pitch-roulette/src/img/control_icon/up.svg

<svg width="13" height="8" viewBox="0 0 13 8" fill="none" xmlns="http://www.w3.org/2000/svg">
<path d="M2.20877 7.18842L6.31334 3.15269L10.4058 7.17893C10.6304 7.3997 10.9925 7.3997 11.2171 7.17893L12.1129 6.29819C12.3374 6.07741 12.3374 5.72132 12.1129 5.50054L6.71655 0.194742C6.49201 -0.0260359 6.12984 -0.026036 5.9053 0.194742L0.501752 5.51003C0.277208 5.73081 0.277208 6.08928 0.501752 6.31006L1.3951 7.18842C1.61964 7.4092 1.98422 7.4092 2.20877 7.18842Z" fill="white"/>
</svg>

<svg width="13" height="8" fill="none" xmlns="http://www.w3.org/2000/svg"><path d="m2.209 7.188 4.104-4.035 4.093 4.026a.58.58 0 0 0 .811 0l.896-.88a.557.557 0 0 0 0-.798L6.717.195a.58.58 0 0 0-.812 0L.502 5.51a.56.56 0 0 0 0 .8l.893.878c.225.221.59.221.814 0z" fill="#fff"/></svg>
